assets/wifi.svg

<?xml version="1.0" encoding="UTF-8"?>
<svg width="22px" height="16px" viewBox="0 0 22 16" version="1.1" xmlns="http://www.w3.org/2000/svg" xmlns:xlink="http://www.w3.org/1999/xlink">
    <!-- Generator: Sketch 47.1 (45422) - http://www.bohemiancoding.com/sketch -->
    <title>Mask</title>
    <desc>Created with Sketch.</desc>
    <defs>
        <path d="M0,5 L2,7 C6.97,2.03 15.03,2.03 20,7 L22,5 C15.93,-1.07 6.08,-1.07 0,5 Z M8,13 L11,16 L14,13 C12.35,11.34 9.66,11.34 8,13 Z M4,9 L6,11 C8.76,8.24 13.24,8.24 16,11 L18,9 C14.14,5.14 7.87,5.14 4,9 Z" id="path-1"></path>
    </defs>
    <g id="Icons" stroke="none" stroke-width="1" fill="none" fill-rule="evenodd">
        <g id="amenitiy-/-wifi" transform="translate(-1.000000, -4.000000)">
            <g id="wifi">
                <g id="Icon-🎨" transform="translate(1.000000, 4.000000)">
                    <mask id="mask-2" fill="white">
                        <use xlink:href="#path-1"></use>
                    </mask>
                    <use id="Mask" fill="#001833" fill-rule="nonzero" xlink:href="#path-1"></use>
                </g>
            </g>
        </g>
    </g>
</svg>

<?xml version="1.0" encoding="utf-8"?>
<!-- Generator: Adobe Illustrator 21.1.0, SVG Export Plug-In . SVG Version: 6.00 Build 0)  -->
<svg version="1.1" id="Layer_1" xmlns="http://www.w3.org/2000/svg" xmlns:xlink="http://www.w3.org/1999/xlink" x="0px" y="0px"
	 viewBox="0 0 22 16" style="enable-background:new 0 0 22 16;" xml:space="preserve">
<style type="text/css">
	.st0{fill:#001833;}
</style>
<path id="path-1_1_" class="st0" d="M0,5l2,2c5-5,13-5,18,0l2-2C15.9-1.1,6.1-1.1,0,5z M8,13l3,3l3-3C12.4,11.3,9.7,11.3,8,13z M4,9
	l2,2c2.8-2.8,7.2-2.8,10,0l2-2C14.1,5.1,7.9,5.1,4,9z"/>
</svg>
